X: 18566
T: I Looked East And I Looked West
R: polka
M: 2/4
K: Gmajor
|:GB B/c/B/A/|FA DB/A/|G.A B.c|^c.d =c.A|
GB B/c/B/A/|FA DA/B/|cA FA|FG GB:|
|:dg f/g/f/e/|fA A>B|c.d e.f|f.g f/g/.f/e/|
dg f/g/f/e/|fA A>B|cA FA|FG G2:|

